src/svgs/icons/task.svg

<?xml version="1.0" encoding="utf-8"?><!DOCTYPE svg PUBLIC "-//W3C//DTD SVG 1.1//EN" "http://www.w3.org/Graphics/SVG/1.1/DTD/svg11.dtd"> <svg width="512" height="512" viewBox="0 0 512 512" xmlns="http://www.w3.org/2000/svg" xmlns:xlink="http://www.w3.org/1999/xlink" fill="#666666"><path d="M 192.00,32.00l 320.00,0.00 l0.00,64.00 L 192.00,96.00 L 192.00,32.00 z M 192.00,224.00l 320.00,0.00 l0.00,64.00 L 192.00,288.00 L 192.00,224.00 z M 192.00,416.00l 320.00,0.00 l0.00,64.00 L 192.00,480.00 L 192.00,416.00 zM0.00,64.00A64.00,64.00 2160.00 1,0 128.00,64A64.00,64.00 2160.00 1,0 0.00,64zM0.00,256.00A64.00,64.00 2160.00 1,0 128.00,256A64.00,64.00 2160.00 1,0 0.00,256zM0.00,448.00A64.00,64.00 2160.00 1,0 128.00,448A64.00,64.00 2160.00 1,0 0.00,448z" ></path></svg>

<svg width="512" height="512" viewBox="0 0 512 512" xmlns="http://www.w3.org/2000/svg" fill="#666"><path d="M192 32h320v64H192V32zm0 192h320v64H192v-64zm0 192h320v64H192v-64zM0 64a64 64 2160 1 0 128 0A64 64 2160 1 0 0 64zm0 192a64 64 2160 1 0 128 0 64 64 2160 1 0-128 0zm0 192a64 64 2160 1 0 128 0 64 64 2160 1 0-128 0z"/></svg>
